!!!OTL: Folk song Number 28
!!!CNT: Chinese
**kern
*k[]
*M2/4
=1
8g
8e
(8g
8a)
=2
8cc
8dd
8ee
8a
=3
8g
8e
8g
8a
=4
(16a
16cc
16dd
16cc)
(16cc
8.a)
=5
8dd
(16ee
16dd)
4a
=6
8ee
8dd
4a
=7
(8cc
8a)
(8g
16e
16g)
=8
(16cc
[16a
4a)]
8cc
=9
8dd
(16ee
16dd)
(8a
8cc)
=10
8ee
8dd
(16cc
8.a)
=11
4cc
8ee
(16dd
16cc)
=12
(16cc
8.a)
4g
!! page 22
=13
4a
(8cc
16a
16cc)
=14
4dd
(16a
8.cc)
=15
4ee
(8dd
8cc)
=16
(16a
16cc)
8r
8cc
8a
=17
4.g
(16cc
16a)
=18
4g
4r
==
*-
!!!PPR: Yin yueh ch'u pan she
!!!OPR: Chung-kuo min ko Chung-kuo yin yueh yen chiu so pien [Chinese folk songs]
!!!OCL: Chung-kuo yin yueh yen chiu so
!!!PPP: Beijing, China
!!!PDT: 1959///
!!!SML: Edward Johnson Library, University of Toronto M1804.C4694C5
!!!PPG: pp.21-22
!!!ENC: David Huron
!!!EMD: Paul von Hippel updated this file in the following ways (1998/9/29/):
!!!EMD:  (1) changed the representation of slurs from curly braces to parentheses 
!!!EMD:  (2) changed freeform comments into reference records and tandem interpretations
!!!EMD:  (3) corrected the author, title, author, and call number of the printed source 
!!!EEV: Version 2.0
